icons/lines/convertshape.svg

<svg xmlns="http://www.w3.org/2000/svg" width="24" height="24" viewBox="0 0 24 24" fill="none" stroke="currentColor" stroke-width="2" stroke-linecap="round" stroke-linejoin="round">
  <path d="M11 18.85C11 21.1 10.1 22 7.85 22h-2.7C2.9 22 2 21.1 2 18.85v-3.7C2 12.9 2.9 12 5.15 12h2.7c2.25 0 3.15.9 3.15 3.15z" />
  <path d="M2 9a7 7 0 0 1 7-7L7.95 3.75" />
  <path d="M22 15a7 7 0 0 1-7 7l1.05-1.75" />
  <path d="M22 8.85c0 2.25-.9 3.15-3.15 3.15h-2.7C13.9 12 13 11.1 13 8.85v-3.7C13 2.9 13.9 2 16.15 2h2.7C21.1 2 22 2.9 22 5.15z" />
</svg>

<svg xmlns="http://www.w3.org/2000/svg" width="24" height="24" viewBox="0 0 24 24" fill="none" stroke="currentColor" stroke-width="2" stroke-linecap="round" stroke-linejoin="round" >
  <path d="M22 5.15V8.85C22 11.1 21.1 12 18.85 12H16.15C13.9 12 13 11.1 13 8.85V5.15C13 2.9 13.9 2 16.15 2H18.85C21.1 2 22 2.9 22 5.15Z"/>
  <path d="M11 15.15V18.85C11 21.1 10.1 22 7.85 22H5.15C2.9 22 2 21.1 2 18.85V15.15C2 12.9 2.9 12 5.15 12H7.85C10.1 12 11 12.9 11 15.15Z"/>
  <path d="M22 15C22 18.87 18.87 22 15 22L16.05 20.25"/>
  <path d="M2 9C2 5.13 5.13 2 9 2L7.95 3.75"/>
  </svg>
